assets/House with garden/Flat/house_with_garden_flat.svg

<svg width="32" height="32" viewBox="0 0 32 32" fill="none" xmlns="http://www.w3.org/2000/svg">
<path d="M10 24H8V28H10V24Z" fill="#7D4533"/>
<path d="M15.0562 18.6646C15.392 18.5404 15.6261 18.3851 15.6973 18.1884C15.8195 17.8571 15.8907 17.4948 15.8907 17.1118V16.4803C15.8907 14.793 14.5576 13.4265 12.909 13.3954C12.909 11.5217 11.4131 10 9.57119 10C7.72927 10 6.23335 11.5217 6.23335 13.3954H6.15194C4.48302 13.3954 3.1194 14.7723 3.1194 16.4803V17.1118C3.1194 17.7433 3.31275 18.3333 3.62821 18.8302C2.66146 19.3996 2 20.4658 2 21.6977C2 23.5197 3.45521 25 5.24625 25H13.7537C15.5447 25 16.9999 23.5197 16.9999 21.6977C17.0101 20.3416 16.2062 19.1718 15.0562 18.6646Z" fill="#00D26A"/>
<path d="M9 28H27V15.4973L18.065 7L13 11.2832V7.41636C13 7.17844 12.82 7 12.6 7H10.41C10.18 7 10 7.18835 10 7.41636V13.8202L9 14.6659V28Z" fill="#F3C07B"/>
<path d="M17.9525 28H12.064C12.0274 28 12 27.9699 12 27.9299V19.1222C12 18.501 12.4572 18 13.0241 18H16.9741C17.541 18 17.9982 18.501 17.9982 19.1222V27.9299C18.0073 27.9699 17.9799 28 17.9525 28Z" fill="#8C5543"/>
<path d="M16.5 24C16.7761 24 17 23.7761 17 23.5C17 23.2239 16.7761 23 16.5 23C16.2239 23 16 23.2239 16 23.5C16 23.7761 16.2239 24 16.5 24Z" fill="#402A32"/>
<path d="M18.1971 29H11.8029C11.3623 29 11 28.5488 11 28C11 27.4512 11.3623 27 11.8029 27H18.1971C18.6377 27 19 27.4512 19 28C19 28.5488 18.6377 29 18.1971 29Z" fill="#D3D3D3"/>
<path d="M29.16 16.595L18.69 6.285C18.3 5.905 17.67 5.905 17.28 6.285L17.27 6.295L6.78005 16.625C6.39005 17.005 6.39005 17.635 6.78005 18.015C7.17005 18.395 7.80005 18.395 8.19005 18.015L17.98 8.365L27.75 17.985C28.14 18.365 28.77 18.365 29.16 17.985C29.55 17.595 29.55 16.975 29.16 16.595Z" fill="#F8312F"/>
<path d="M30 30H2C2 28.9 2.9 28 4 28H28C29.1 28 30 28.89 30 30Z" fill="#00F397"/>
<path d="M24.2843 23H20.7157C20.3226 23 20 22.6774 20 22.2843V18.7157C20 18.3226 20.3226 18 20.7157 18H24.2843C24.6774 18 25 18.3226 25 18.7157V22.2843C25 22.6774 24.6774 23 24.2843 23Z" fill="#83CBFF"/>
<path d="M26.32 30C27.04 29.6187 27.58 28.9666 27.83 28.194C27.94 27.8729 28 27.5318 28 27.1806C28 26.2977 27.64 25.495 27.05 24.913C26.47 24.3512 25.7 24 24.83 24C23.58 24 22.49 24.7425 21.97 25.806C21.87 26.0268 21.67 26.1873 21.44 26.2575C20.68 26.4983 20.12 27.1806 20.02 27.9933C20.01 28.0134 20.01 28.0334 20.02 28.0535C20 28.1137 20 28.1839 20 28.2542C20 28.9866 20.38 29.6187 20.95 29.99H26.32V30Z" fill="#00D26A"/>
</svg>

<svg xmlns="http://www.w3.org/2000/svg" width="32" height="32" fill="none"><path fill="#7D4533" d="M10 24H8v4h2v-4Z"/><path fill="#00D26A" d="M15.056 18.665c.336-.125.57-.28.641-.477.123-.33.194-.693.194-1.076v-.632c0-1.687-1.333-3.053-2.982-3.085 0-1.873-1.496-3.395-3.338-3.395s-3.338 1.522-3.338 3.395h-.081c-1.669 0-3.033 1.377-3.033 3.085v.632c0 .631.194 1.221.51 1.718A3.321 3.321 0 0 0 2 21.698C2 23.52 3.455 25 5.246 25h8.508C15.544 25 17 23.52 17 21.698a3.283 3.283 0 0 0-1.944-3.033Z"/><path fill="#F3C07B" d="M9 28h18V15.497L18.065 7 13 11.283V7.416A.404.404 0 0 0 12.6 7h-2.19c-.23 0-.41.188-.41.416v6.404l-1 .846V28Z"/><path fill="#8C5543" d="M17.953 28h-5.889c-.037 0-.064-.03-.064-.07v-8.808c0-.621.457-1.122 1.024-1.122h3.95c.567 0 1.024.501 1.024 1.122v8.808c.01.04-.018.07-.046.07Z"/><path fill="#402A32" d="M16.5 24a.5.5 0 1 0 0-1 .5.5 0 0 0 0 1Z"/><path fill="#D3D3D3" d="M18.197 29h-6.394c-.44 0-.803-.451-.803-1 0-.549.362-1 .803-1h6.394c.44 0 .803.451.803 1 0 .549-.362 1-.803 1Z"/><path fill="#F8312F" d="M29.16 16.595 18.69 6.285c-.39-.38-1.02-.38-1.41 0l-.01.01-10.49 10.33a.972.972 0 0 0 0 1.39c.39.38 1.02.38 1.41 0l9.79-9.65 9.77 9.62c.39.38 1.02.38 1.41 0a.972.972 0 0 0 0-1.39Z"/><path fill="#00F397" d="M30 30H2c0-1.1.9-2 2-2h24a2 2 0 0 1 2 2Z"/><path fill="#83CBFF" d="M24.284 23h-3.568a.718.718 0 0 1-.716-.716v-3.568c0-.393.323-.716.716-.716h3.568c.393 0 .716.323.716.716v3.568a.718.718 0 0 1-.716.716Z"/><path fill="#00D26A" d="M26.32 30a3.135 3.135 0 0 0 1.51-1.806c.11-.321.17-.662.17-1.013 0-.883-.36-1.686-.95-2.268A3.167 3.167 0 0 0 24.83 24c-1.25 0-2.34.742-2.86 1.806a.85.85 0 0 1-.53.451c-.76.241-1.32.924-1.42 1.736-.01.02-.01.04 0 .06-.02.06-.02.13-.02.201 0 .733.38 1.365.95 1.736h5.37V30Z"/></svg>
